src/lib/packages/icons/src/assets/line/envelope-heart.svg

<svg width="24" height="24" viewBox="0 0 24 24" fill="none" xmlns="http://www.w3.org/2000/svg">
<path d="M12 19.75H5C2.582 19.75 1.25 18.418 1.25 16V7C1.25 4.582 2.582 3.25 5 3.25H17C19.418 3.25 20.75 4.582 20.75 7V11C20.75 11.414 20.414 11.75 20 11.75C19.586 11.75 19.25 11.414 19.25 11V7C19.25 5.423 18.577 4.75 17 4.75H5C3.423 4.75 2.75 5.423 2.75 7V16C2.75 17.577 3.423 18.25 5 18.25H12C12.414 18.25 12.75 18.586 12.75 19C12.75 19.414 12.414 19.75 12 19.75ZM12.0291 12.179L16.9409 8.60699C17.2759 8.36399 17.35 7.89401 17.106 7.55901C16.863 7.22501 16.3951 7.149 16.0581 7.394L11.146 10.966C11.058 11.03 10.941 11.03 10.853 10.966L5.94092 7.394C5.60292 7.149 5.13607 7.22601 4.89307 7.55901C4.64907 7.89401 4.72311 8.36299 5.05811 8.60699L9.96997 12.18C10.278 12.404 10.639 12.515 10.999 12.515C11.359 12.515 11.7221 12.403 12.0291 12.179ZM18.8069 21.685C18.9429 21.624 22.1449 20.164 22.6689 17.5C22.8829 16.417 22.6721 15.388 22.0901 14.677C21.5981 14.075 20.893 13.755 20.051 13.751C20.046 13.751 20.0421 13.751 20.0381 13.751C19.3771 13.751 18.869 14.007 18.5 14.339C18.129 14.005 17.642 13.746 16.949 13.751C16.109 13.755 15.4039 14.075 14.9109 14.677C14.3289 15.389 14.1161 16.418 14.3301 17.5C14.8551 20.163 18.0581 21.624 18.1931 21.685C18.2911 21.729 18.395 21.75 18.5 21.75C18.605 21.75 18.7089 21.728 18.8069 21.685ZM17.79 15.883C17.892 16.184 18.1739 16.383 18.4919 16.388C18.7659 16.388 19.096 16.191 19.207 15.892C19.231 15.826 19.4601 15.25 20.0391 15.25C20.0411 15.25 20.042 15.25 20.043 15.25C20.434 15.252 20.724 15.375 20.929 15.626C21.222 15.985 21.323 16.577 21.199 17.209C20.902 18.713 19.206 19.776 18.501 20.159C17.796 19.776 16.1 18.713 15.803 17.21C15.678 16.578 15.78 15.986 16.074 15.627C16.28 15.376 16.569 15.252 16.959 15.251C16.96 15.251 16.9609 15.251 16.9629 15.251C17.5399 15.25 17.769 15.826 17.79 15.883Z" fill="currentColor"/>
</svg>

<svg xmlns="http://www.w3.org/2000/svg" width="24" height="24" fill="none"><path fill="currentColor" d="M12 19.75H5c-2.418 0-3.75-1.332-3.75-3.75V7c0-2.418 1.332-3.75 3.75-3.75h12c2.418 0 3.75 1.332 3.75 3.75v4a.75.75 0 0 1-1.5 0V7c0-1.577-.673-2.25-2.25-2.25H5c-1.577 0-2.25.673-2.25 2.25v9c0 1.577.673 2.25 2.25 2.25h7a.75.75 0 0 1 0 1.5Zm.03-7.571 4.91-3.572a.75.75 0 1 0-.882-1.213l-4.912 3.572a.248.248 0 0 1-.293 0L5.941 7.394a.75.75 0 0 0-.883 1.213L9.97 12.18a1.747 1.747 0 0 0 2.06-.001Zm6.777 9.506c.136-.061 3.338-1.521 3.862-4.185.214-1.083.003-2.112-.579-2.823-.492-.602-1.197-.922-2.039-.926h-.013a2.25 2.25 0 0 0-1.538.588 2.195 2.195 0 0 0-1.551-.588c-.84.004-1.545.324-2.038.926-.582.712-.795 1.741-.58 2.823.524 2.663 3.727 4.124 3.862 4.185a.746.746 0 0 0 .614 0Zm-1.017-5.802c.102.301.384.5.702.505a.809.809 0 0 0 .715-.496c.024-.066.253-.642.832-.642h.004c.391.002.681.125.886.376.293.359.394.951.27 1.583-.297 1.504-1.993 2.567-2.698 2.95-.705-.383-2.401-1.446-2.698-2.949-.125-.632-.023-1.224.271-1.583.206-.251.495-.375.885-.376h.004c.577-.001.806.575.827.632Z"/></svg>
